storage/app/icons/phosphoricons/regular/tram.svg

<svg xmlns="http://www.w3.org/2000/svg" fill="currentColor" viewBox="0 0 256 256"><path d="M184 48h-48V24h32a8 8 0 0 0 0-16H88a8 8 0 0 0 0 16h32v24H72a32 32 0 0 0-32 32v104a32 32 0 0 0 32 32h8l-14.4 19.2a8 8 0 1 0 12.8 9.6L100 216h56l21.6 28.8a8 8 0 1 0 12.8-9.6L176 216h8a32 32 0 0 0 32-32V80a32 32 0 0 0-32-32M72 64h112a16 16 0 0 1 16 16v40H56V80a16 16 0 0 1 16-16m112 136H72a16 16 0 0 1-16-16v-48h144v48a16 16 0 0 1-16 16m-88-28a12 12 0 1 1-12-12 12 12 0 0 1 12 12m88 0a12 12 0 1 1-12-12 12 12 0 0 1 12 12"/></svg>

<svg xmlns="http://www.w3.org/2000/svg" viewBox="0 0 256 256" fill="currentColor"><path d="M184,48H136V24h32a8,8,0,0,0,0-16H88a8,8,0,0,0,0,16h32V48H72A32,32,0,0,0,40,80V184a32,32,0,0,0,32,32h8L65.6,235.2a8,8,0,1,0,12.8,9.6L100,216h56l21.6,28.8a8,8,0,1,0,12.8-9.6L176,216h8a32,32,0,0,0,32-32V80A32,32,0,0,0,184,48ZM72,64H184a16,16,0,0,1,16,16v40H56V80A16,16,0,0,1,72,64ZM184,200H72a16,16,0,0,1-16-16V136H200v48A16,16,0,0,1,184,200ZM96,172a12,12,0,1,1-12-12A12,12,0,0,1,96,172Zm88,0a12,12,0,1,1-12-12A12,12,0,0,1,184,172Z"/></svg>
